assets/Minibus/Flat/minibus_flat.svg

<svg width="32" height="32" viewBox="0 0 32 32" fill="none" xmlns="http://www.w3.org/2000/svg">
<path d="M2.8 17.9333L7.4 11.8C7.77771 11.2964 8.37049 11 9 11H28C29.1046 11 30 11.8954 30 13V25C30 26.1046 29.1046 27 28 27H4C2.89543 27 2 26.1046 2 25V20.3333C2 19.4679 2.28071 18.6257 2.8 17.9333Z" fill="#D3D3D3"/>
<path d="M8.5 30C10.433 30 12 28.433 12 26.5C12 24.567 10.433 23 8.5 23C6.567 23 5 24.567 5 26.5C5 28.433 6.567 30 8.5 30ZM23.5 30C25.433 30 27 28.433 27 26.5C27 24.567 25.433 23 23.5 23C21.567 23 20 24.567 20 26.5C20 28.433 21.567 30 23.5 30Z" fill="#212121"/>
<path d="M8.5 28C9.32843 28 10 27.3284 10 26.5C10 25.6716 9.32843 25 8.5 25C7.67157 25 7 25.6716 7 26.5C7 27.3284 7.67157 28 8.5 28ZM23.5 28C24.3284 28 25 27.3284 25 26.5C25 25.6716 24.3284 25 23.5 25C22.6716 25 22 25.6716 22 26.5C22 27.3284 22.6716 28 23.5 28Z" fill="white"/>
<path d="M2 20.3333V21H30V19H2.22876C2.07832 19.4255 2 19.8762 2 20.3333Z" fill="#8D65C5"/>
<path d="M28 23C28 22.4477 28.4477 22 29 22H30V24H29C28.4477 24 28 23.5523 28 23V23Z" fill="#F92F60"/>
<path d="M2 22V22C2.55228 22 3 22.4477 3 23V24C3 24.5523 2.55228 25 2 25V25V22Z" fill="#FFB02E"/>
<path d="M6.49991 13L2.79991 17.9333C2.78335 17.9554 2.76704 17.9776 2.75098 18H7.99991C8.55219 18 8.99991 17.5523 8.99991 17V14C8.99991 13.4477 8.55219 13 7.99991 13H6.49991ZM30.0108 13.0001C30.0072 13 30.0035 13 29.9999 13H18.9999C18.4476 13 17.9999 13.4477 17.9999 14V17C17.9999 17.5523 18.4476 18 18.9999 18H29.9999C30.0127 18 30.0254 17.9998 30.038 17.9993L30.0108 13.0001ZM11.9999 13C11.4476 13 10.9999 13.4477 10.9999 14V17C10.9999 17.5523 11.4476 18 11.9999 18H14.9999C15.5522 18 15.9999 17.5523 15.9999 17V14C15.9999 13.4477 15.5522 13 14.9999 13H11.9999Z" fill="#00A6ED"/>
</svg>

<svg xmlns="http://www.w3.org/2000/svg" width="32" height="32" fill="none"><path fill="#D3D3D3" d="M2.8 17.933 7.4 11.8A2 2 0 0 1 9 11h19a2 2 0 0 1 2 2v12a2 2 0 0 1-2 2H4a2 2 0 0 1-2-2v-4.667a4 4 0 0 1 .8-2.4Z"/><path fill="#212121" d="M8.5 30a3.5 3.5 0 1 0 0-7 3.5 3.5 0 0 0 0 7Zm15 0a3.5 3.5 0 1 0 0-7 3.5 3.5 0 0 0 0 7Z"/><path fill="#fff" d="M8.5 28a1.5 1.5 0 1 0 0-3 1.5 1.5 0 0 0 0 3Zm15 0a1.5 1.5 0 1 0 0-3 1.5 1.5 0 0 0 0 3Z"/><path fill="#8D65C5" d="M2 20.333V21h28v-2H2.229A4 4 0 0 0 2 20.333Z"/><path fill="#F92F60" d="M28 23a1 1 0 0 1 1-1h1v2h-1a1 1 0 0 1-1-1Z"/><path fill="#FFB02E" d="M2 22a1 1 0 0 1 1 1v1a1 1 0 0 1-1 1v-3Z"/><path fill="#00A6ED" d="m6.5 13-3.7 4.933A3.929 3.929 0 0 0 2.75 18H8a1 1 0 0 0 1-1v-3a1 1 0 0 0-1-1H6.5Zm23.51 0H19a1 1 0 0 0-1 1v3a1 1 0 0 0 1 1h11.038l-.027-5ZM12 13a1 1 0 0 0-1 1v3a1 1 0 0 0 1 1h3a1 1 0 0 0 1-1v-3a1 1 0 0 0-1-1h-3Z"/></svg>
